X: 92
T:Lilli Burlero
M:6/8
L:1/8
S:Playford
K:G
G>AG B2 B| A>BA c3| BdG c2 B| AGF G3| G>AG B2 B| A>BA c3 BdG c2 B| AGF G3:|
|:g2 f g2 d| =f2 f e2 d| efg g2 d|edB A3| edc Bcd| edc Bcd | edB c2 B| AGF G3:|

